src/assets/img/brands/logomark/google-ad-manager.svg

<svg viewBox="0 0 1000 1000" version="1.1" xmlns="http://www.w3.org/2000/svg" xmlns:xlink="http://www.w3.org/1999/xlink">
  <g id="google-ad-manager" stroke="none" stroke-width="1" fill="none" fill-rule="evenodd">
    <g id="google-ad-manager-2" transform="translate(98.995298, 83.000000)" fill-rule="nonzero">
      <path d="M779.595222,452.504239 L452.486292,779.61874 C422.64512,809.46042 374.239012,809.46042 344.39784,779.61874 C314.523983,749.777059 314.556668,701.370127 344.39784,671.528446 L671.539455,344.38126 C701.380627,314.53958 749.786734,314.53958 779.627907,344.38126 C809.469079,374.255626 809.469079,422.629873 779.595222,452.504239 L779.595222,452.504239 Z" id="Path" fill="#FBBC04"></path>
      <circle id="Oval" fill="#34A853" transform="translate(398.417237, 725.659769) rotate(-45.000000) translate(-398.417237, -725.659769) " cx="398.417237" cy="725.659769" r="76.4240763"></circle>
      <path d="M510.560431,183.401712 L347.004702,346.929306 L455.072393,455 L618.628122,291.472406 C648.463562,261.636136 648.463562,213.237981 618.628122,183.401712 C588.760003,153.532763 540.395871,153.532763 510.560431,183.401712 L510.560431,183.401712 Z" id="Path" fill="#FBBC04"></path>
      <path d="M291.463474,618.620932 L455.004702,455.079704 L346.924998,347 L183.38377,510.541228 C153.545013,540.379985 153.545013,588.782175 183.38377,618.620932 C213.222527,648.459689 261.624717,648.459689 291.463474,618.620932 L291.463474,618.620932 Z" id="Path" fill="#3B80EF"></path>
      <circle id="Oval" fill="#34A853" transform="translate(401.254432, 400.682156) rotate(-45.000000) translate(-401.254432, -400.682156) " cx="401.254432" cy="400.682156" r="76.4240763"></circle>
      <path d="M457.623442,130.471554 L130.476256,457.61874 C100.634575,487.46042 52.2276432,487.46042 22.3859626,457.61874 C-7.45571795,427.777059 -7.45571795,379.370127 22.3859626,349.528446 L349.533149,22.3812604 C379.374829,-7.46042014 427.781761,-7.46042014 457.623442,22.3812604 C487.465122,52.222941 487.465122,100.629873 457.623442,130.471554 L457.623442,130.471554 Z" id="Path" fill="#3B80EF"></path>
      <circle id="Oval" fill="#34A853" cx="403.504702" cy="76.5" r="76.5"></circle>
    </g>
  </g>
</svg>

<svg viewBox="0 0 1000 1000" xmlns="http://www.w3.org/2000/svg"><g transform="translate(98.995 83)" fill-rule="nonzero" fill="none"><path d="M779.595 452.504L452.486 779.62c-29.84 29.841-78.247 29.841-108.088 0-29.874-29.842-29.841-78.249 0-108.09L671.539 344.38c29.842-29.841 78.248-29.841 108.089 0 29.841 29.875 29.841 78.249-.033 108.123z" fill="#FBBC04"/><circle fill="#34A853" transform="rotate(-45 398.417 725.66)" cx="398.417" cy="725.66" r="76.424"/><path d="M510.56 183.402L347.005 346.929 455.072 455l163.556-163.528c29.836-29.836 29.836-78.234 0-108.07-29.868-29.87-78.232-29.87-108.068 0z" fill="#FBBC04"/><path d="M291.463 618.62l163.542-163.54L346.925 347 183.384 510.541c-29.839 29.839-29.839 78.241 0 108.08s78.24 29.839 108.08 0z" fill="#3B80EF"/><circle fill="#34A853" transform="rotate(-45 401.254 400.682)" cx="401.254" cy="400.682" r="76.424"/><path d="M457.623 130.472L130.476 457.619c-29.841 29.841-78.248 29.841-108.09 0-29.842-29.842-29.842-78.249 0-108.09L349.533 22.38c29.842-29.841 78.249-29.841 108.09 0 29.842 29.842 29.842 78.249 0 108.09z" fill="#3B80EF"/><circle fill="#34A853" cx="403.505" cy="76.5" r="76.5"/></g></svg>
